Papirus/22x22/panel/rescuetime-offline.svg

<?xml version="1.0" encoding="UTF-8" standalone="no"?>
<svg id="svg2817" xmlns:rdf="http://www.w3.org/1999/02/22-rdf-syntax-ns#" xmlns="http://www.w3.org/2000/svg" height="22" width="22" version="1.0" xmlns:cc="http://creativecommons.org/ns#" xmlns:dc="http://purl.org/dc/elements/1.1/">
 <metadata id="metadata57">
  <rdf:RDF>
   <cc:Work rdf:about="">
    <dc:format>image/svg+xml</dc:format>
    <dc:type rdf:resource="http://purl.org/dc/dcmitype/StillImage"/>
    <dc:title/>
   </cc:Work>
  </rdf:RDF>
 </metadata>
 <path id="rect3545" opacity=".3" d="m8 3v5h-5v6h5v5h6v-5h5v-6h-5v-5h-6zm3 2c0.554 0 1 0.446 1 1v3.2695a2 2 0 0 1 0.729 0.7305h3.271c0.554 0 1 0.446 1 1s-0.446 1-1 1h-3.27a2 2 0 0 1 -1.73 1 2 2 0 0 1 -2 -2 2 2 0 0 1 1 -1.7285v-3.2715c0-0.554 0.446-1 1-1z" fill-rule="evenodd" fill="#fff"/>
</svg>

<?xml version="1.0" encoding="UTF-8" standalone="no"?>
<svg xmlns:dc="http://purl.org/dc/elements/1.1/" xmlns:cc="http://creativecommons.org/ns#" xmlns:rdf="http://www.w3.org/1999/02/22-rdf-syntax-ns#" xmlns:svg="http://www.w3.org/2000/svg" xmlns="http://www.w3.org/2000/svg" id="svg2817" height="22" width="22" version="1.0">
    <metadata id="metadata57">
        <rdf:RDF>
            <cc:Work rdf:about="">
                <dc:format>
                    image/svg+xml
                </dc:format>
                <dc:type rdf:resource="http://purl.org/dc/dcmitype/StillImage"/>
                <dc:title/>
            </cc:Work>
        </rdf:RDF>
    </metadata>
    <path id="rect3545" d="M 8 3 L 8 8 L 3 8 L 3 14 L 8 14 L 8 19 L 14 19 L 14 14 L 19 14 L 19 8 L 14 8 L 14 3 L 8 3 z M 11 5 C 11.554 5 12 5.446 12 6 L 12 9.2695312 A 2 2 0 0 1 12.728516 10 L 16 10 C 16.554 10 17 10.446 17 11 C 17 11.554 16.554 12 16 12 L 12.730469 12 A 2 2 0 0 1 11 13 A 2 2 0 0 1 9 11 A 2 2 0 0 1 10 9.2714844 L 10 6 C 10 5.446 10.446 5 11 5 z " style="fill:#ffffff;fill-rule:evenodd;stroke:none;stroke-width:1px;stroke-linecap:butt;stroke-linejoin:miter;stroke-opacity:1;fill-opacity:1;opacity:0.3"/>
</svg>
